X: 43092
T: Winding Hills Of Sligo, The
R: reel
M: 4/4
K: Gmajor
|:B|dG (3GFG dGeG|dG (3GFG AGED|GFGA BABc|dega bage|
dG (3GFG dGeG|dG (3GFG AGED|GFGA BABc|defa ~g2g:|
|:f|g2 ag eg ~g2g|dBGB AE (3EDE|g2 ag eg (3gfg|eaag agef|
g2 ag eg (3gfg|dBGB AE (3EDE|G3 A BABc|defa g3:|

